icons/blood_cells_fill.svg

<svg width="48" height="48" viewBox="0 0 48 48" fill="none" xmlns="http://www.w3.org/2000/svg">
<path d="M25.0001 14.3333C25.0001 14.7874 24.6299 15.441 23.4859 16.0402C22.3892 16.6147 20.8049 17 19.0001 17C17.1954 17 15.611 16.6147 14.5144 16.0402C13.3703 15.441 13.0001 14.7874 13.0001 14.3333C13.0001 13.9367 13.274 13.3911 14.1358 12.8445L13.0645 11.1555C11.9273 11.8769 11.0001 12.9571 11.0001 14.3333C11.0001 15.9043 12.1969 17.0841 13.5864 17.8119C15.0232 18.5645 16.9389 19 19.0001 19C21.0613 19 22.977 18.5645 24.4139 17.8119C25.8033 17.0841 27.0001 15.9043 27.0001 14.3333C27.0001 12.9571 26.073 11.8769 24.9357 11.1555L23.8645 12.8445C24.7263 13.3911 25.0001 13.9367 25.0001 14.3333Z" fill="black"/>
<path fill-rule="evenodd" clip-rule="evenodd" d="M6.00012 15.5C6.00012 18.4759 7.87252 21.1321 10.8034 22.874C6.32904 25.5355 4.29161 30.3908 6.25181 33.786C8.23323 37.2179 13.549 37.8584 18.1249 35.2165C22.5586 32.6566 24.6709 27.9545 22.9955 24.5429C28.2204 23.311 32.0001 19.7281 32.0001 15.5C32.0001 10.2533 26.1798 6 19.0001 6C11.8204 6 6.00012 10.2533 6.00012 15.5ZM27.0125 20.6027C28.9891 19.1582 30.0001 17.3301 30.0001 15.5C30.0001 13.6699 28.9891 11.8418 27.0125 10.3973C25.0373 8.95388 22.211 8 19.0001 8C15.7892 8 12.9629 8.95388 10.9878 10.3973C9.0111 11.8418 8.00012 13.6699 8.00012 15.5C8.00012 17.3301 9.0111 19.1582 10.9878 20.6027C12.9629 22.0461 15.7892 23 19.0001 23C22.211 23 25.0373 22.0461 27.0125 20.6027ZM16.5658 24.8337C17.2795 24.9325 18.0138 24.9887 18.7636 24.9984C18.9612 25.1841 19.1359 25.4005 19.2802 25.6504C19.9239 26.7654 19.6897 28.0595 19.1126 29.1193C18.5258 30.1968 17.5099 31.2027 16.2331 31.9399C14.9563 32.677 13.5773 33.0539 12.3507 33.0233C11.1443 32.9932 9.90645 32.5489 9.26273 31.434C8.70025 30.4597 8.80992 29.3401 9.22847 28.3775L11.0626 29.175C10.8035 29.7708 10.8506 30.1842 10.9948 30.434C11.1583 30.7172 11.5787 31.0034 12.4006 31.0239C13.2024 31.0439 14.2219 30.7916 15.2331 30.2078C16.2443 29.624 16.9725 28.8672 17.3561 28.1628C17.7493 27.4408 17.7116 26.9336 17.5481 26.6504C17.4039 26.4006 17.0695 26.1532 16.4239 26.0796L16.5658 24.8337Z" fill="black"/>
<path d="M35.8355 24.7644C38.2305 25.4061 40.5622 24.4702 41.0435 22.6739C41.5248 20.8777 39.9734 18.9013 37.5784 18.2596C35.1835 17.6179 32.8518 18.5538 32.3705 20.35C31.8892 22.1463 33.4405 24.1226 35.8355 24.7644Z" fill="black"/>
<path fill-rule="evenodd" clip-rule="evenodd" d="M42.2452 36.457C41.1739 40.4552 35.9838 42.5385 30.6528 41.11C25.3218 39.6816 21.8687 35.2824 22.94 31.2842C24.0113 27.286 29.2014 25.2027 34.5324 26.6311C39.8634 28.0596 43.3165 32.4588 42.2452 36.457ZM35.3073 35.3754C36.1393 35.1301 36.5027 34.7196 36.5966 34.369C36.6794 34.06 36.6077 33.616 36.1797 33.0778L37.7449 31.8328C38.4219 32.6839 38.8278 33.7696 38.5285 34.8866C38.186 36.1649 37.0739 36.9396 35.873 37.2938C34.6528 37.6535 33.168 37.6467 31.6872 37.2499C30.2063 36.8531 28.917 36.1166 28.0402 35.195C27.1773 34.2879 26.6015 33.0609 26.944 31.7826C27.2433 30.6656 28.1377 29.9283 29.1495 29.5297L29.8826 31.3905C29.2428 31.6425 28.9587 31.9912 28.8759 32.3002C28.7819 32.6508 28.8914 33.1881 29.4893 33.8165C30.0732 34.4303 31.0202 35.0007 32.2048 35.3181C33.3894 35.6355 34.4947 35.615 35.3073 35.3754Z" fill="black"/>
</svg>

<svg
  xmlns="http://www.w3.org/2000/svg"
  width="24"
  height="24"
  viewBox="0 0 24 24"
  fill="none"
  stroke="currentColor"
  stroke-width="2"
  stroke-linecap="round"
  stroke-linejoin="round"
>
  <path d="M25 14.333c0 .454-.37 1.108-1.514 1.707-1.097.575-2.681.96-4.486.96s-3.389-.385-4.486-.96C13.37 15.441 13 14.787 13 14.333c0-.396.274-.942 1.136-1.489l-1.071-1.688c-1.138.72-2.065 1.801-2.065 3.177 0 1.571 1.197 2.751 2.586 3.479C15.023 18.564 16.94 19 19 19s3.977-.436 5.414-1.188c1.39-.728 2.586-1.908 2.586-3.479 0-1.376-.927-2.456-2.064-3.177l-1.072 1.688c.862.547 1.136 1.093 1.136 1.49" />
  <path
    fill-rule="evenodd"
    d="M6 15.5c0 2.976 1.873 5.632 4.803 7.374-4.474 2.662-6.511 7.517-4.551 10.912 1.981 3.432 7.297 4.072 11.873 1.43 4.434-2.56 6.546-7.262 4.87-10.673C28.22 23.31 32 19.728 32 15.5 32 10.253 26.18 6 19 6S6 10.253 6 15.5m21.013 5.103C28.989 19.158 30 17.33 30 15.5s-1.01-3.658-2.988-5.103C25.037 8.954 22.212 8 19 8c-3.21 0-6.037.954-8.012 2.397C9.01 11.842 8 13.67 8 15.5s1.011 3.658 2.988 5.103C12.963 22.046 15.789 23 19 23s6.037-.954 8.012-2.397m-10.447 4.23q1.071.15 2.198.165c.197.186.372.402.516.652.644 1.115.41 2.41-.167 3.47-.587 1.077-1.603 2.083-2.88 2.82s-2.656 1.114-3.882 1.083c-1.207-.03-2.445-.474-3.088-1.589-.563-.974-.453-2.094-.035-3.056l1.835.797c-.26.596-.212 1.01-.068 1.259.163.283.584.57 1.406.59.801.02 1.82-.232 2.832-.816s1.74-1.34 2.123-2.045c.393-.722.356-1.23.192-1.513-.144-.25-.478-.497-1.124-.57z"
    clip-rule="evenodd"
  />
  <path d="M35.836 24.764c2.395.642 4.726-.294 5.208-2.09.48-1.796-1.07-3.773-3.466-4.414-2.395-.642-4.726.294-5.208 2.09-.48 1.796 1.07 3.773 3.466 4.414" />
  <path
    fill-rule="evenodd"
    d="M42.245 36.457c-1.071 3.998-6.261 6.081-11.592 4.653s-8.784-5.828-7.713-9.826 6.261-6.081 11.592-4.653 8.785 5.828 7.713 9.826m-6.938-1.082c.832-.245 1.196-.655 1.29-1.006.082-.309.01-.753-.417-1.291l1.565-1.245c.677.85 1.083 1.937.784 3.054-.343 1.278-1.455 2.053-2.656 2.407-1.22.36-2.705.353-4.186-.044s-2.77-1.133-3.647-2.055c-.863-.907-1.438-2.134-1.096-3.412.3-1.117 1.194-1.855 2.206-2.253l.733 1.86c-.64.252-.924.601-1.007.91-.094.35.015.888.613 1.517.584.613 1.531 1.184 2.716 1.501 1.184.318 2.29.297 3.102.057"
    clip-rule="evenodd"
  />
</svg>
